icons/number-24.svg

<svg xmlns="http://www.w3.org/2000/svg" width="24" height="24" viewBox="0 0 24 24"><path fill-rule="evenodd" d="M8.114 2.094a.75.75 0 01.386.656V9h1.252a.75.75 0 110 1.5H5.75a.75.75 0 010-1.5H7V4.103l-.853.533a.75.75 0 01-.795-1.272l2-1.25a.75.75 0 01.762-.02zm4.889 5.66a.75.75 0 01.75-.75h5.232a.75.75 0 01.53 1.28l-2.776 2.777c.55.097 1.057.253 1.492.483.905.477 1.504 1.284 1.504 2.418 0 .966-.471 1.75-1.172 2.27-.687.511-1.587.77-2.521.77-1.367 0-2.274-.528-2.667-.756a.75.75 0 01.755-1.297c.331.193.953.553 1.912.553.673 0 1.243-.188 1.627-.473.37-.275.566-.635.566-1.067 0-.5-.219-.836-.703-1.091-.538-.284-1.375-.443-2.471-.443a.75.75 0 01-.53-1.28l2.643-2.644h-3.421a.75.75 0 01-.75-.75zM7.88 15.215a1.4 1.4 0 00-1.446.83.75.75 0 01-1.37-.61 2.9 2.9 0 012.986-1.71 2.565 2.565 0 011.557.743c.434.446.685 1.058.685 1.778 0 1.641-1.254 2.437-2.12 2.986-.538.341-1.18.694-1.495 1.273H9.75a.75.75 0 010 1.5h-4a.75.75 0 01-.75-.75c0-1.799 1.337-2.63 2.243-3.21 1.032-.659 1.55-1.031 1.55-1.8 0-.355-.116-.584-.26-.732a1.068 1.068 0 00-.652-.298z"/></svg>

<svg xmlns="http://www.w3.org/2000/svg" width="24" height="24" viewBox="0 0 24 24">
  <defs/>
  <path d="M13.003,7.754 C13.003,7.34 13.339,7.004 13.753,7.004 L18.985,7.004 C19.288,7.004 19.561,7.187 19.677,7.467 C19.793,7.747 19.729,8.07 19.515,8.284 L16.739,11.061 C17.289,11.158 17.796,11.314 18.231,11.544 C19.136,12.021 19.735,12.828 19.735,13.962 C19.735,14.928 19.264,15.712 18.563,16.232 C17.876,16.743 16.976,17.002 16.042,17.002 C14.675,17.002 13.768,16.474 13.375,16.246 C13.017,16.038 12.896,15.578 13.104,15.22 C13.312,14.862 13.772,14.741 14.13,14.949 C14.461,15.142 15.083,15.502 16.042,15.502 C16.715,15.502 17.285,15.314 17.669,15.029 C18.039,14.754 18.235,14.394 18.235,13.962 C18.235,13.462 18.016,13.126 17.532,12.871 C16.994,12.587 16.157,12.428 15.061,12.428 C14.758,12.428 14.485,12.245 14.369,11.965 C14.253,11.685 14.317,11.362 14.531,11.148 L17.174,8.504 L13.753,8.504 C13.339,8.504 13.003,8.168 13.003,7.754 Z M7.88,15.215 C7.268,15.143 6.681,15.48 6.434,16.045 C6.26,16.414 5.823,16.577 5.45,16.411 C5.078,16.245 4.906,15.811 5.064,15.435 C5.577,14.272 6.787,13.579 8.05,13.725 C8.639,13.785 9.189,14.048 9.607,14.468 C10.041,14.914 10.292,15.526 10.292,16.246 C10.292,17.887 9.038,18.683 8.172,19.232 C7.634,19.573 6.992,19.926 6.677,20.505 L9.75,20.505 C10.164,20.505 10.5,20.841 10.5,21.255 C10.5,21.669 10.164,22.005 9.75,22.005 L5.75,22.005 C5.336,22.005 5,21.669 5,21.255 C5,19.456 6.337,18.625 7.243,18.045 C8.275,17.386 8.793,17.014 8.793,16.245 C8.793,15.89 8.677,15.661 8.533,15.513 C8.356,15.342 8.126,15.236 7.881,15.215 Z M8.114,2.094 C8.352,2.226 8.5,2.477 8.5,2.75 L8.5,9 L9.752,9 C10.166,9 10.502,9.336 10.502,9.75 C10.502,10.164 10.166,10.5 9.752,10.5 L5.75,10.5 C5.336,10.5 5,10.164 5,9.75 C5,9.336 5.336,9 5.75,9 L7,9 L7,4.103 L6.147,4.636 C5.796,4.856 5.333,4.749 5.114,4.398 C4.894,4.046 5.001,3.584 5.352,3.364 L7.352,2.114 C7.583,1.969 7.875,1.961 8.114,2.094 Z"/>
</svg>
